X:12606
T:Paddy Fahy's
R:reel
S:
H:
N:
D:Taped @ Milltown
Z:Adrian Scahill
M:4/4
L:1/8
K:G
B3d c2dc|BGGF DE=FD|GABd c2dc|BGAF G3A:||\
dgg2 dgBc|dgag fdcB|c=ff2 cfAf|c=fag ^fdcA|\
dgg2 dgBc|dgag fdef|gbag fdeg|fdca G4||
